svg/fluentui-system-icons/ic_fluent_table_simple_multiple_24_regular.svg

<svg width="24" height="24" viewBox="0 0 24 24" fill="none" xmlns="http://www.w3.org/2000/svg">
<path d="M5.25 2C3.45507 2 2 3.45508 2 5.25V15.75C2 17.5449 3.45508 19 5.25 19H15.75C17.5449 19 19 17.5449 19 15.75V5.25C19 3.45507 17.5449 2 15.75 2H5.25ZM3.5 5.25C3.5 4.2835 4.2835 3.5 5.25 3.5H10V10H3.5V5.25ZM11.5 10V3.5H15.75C16.7165 3.5 17.5 4.2835 17.5 5.25V10H11.5ZM3.5 11.5H10V17.5H5.25C4.2835 17.5 3.5 16.7165 3.5 15.75V11.5ZM11.5 11.5H17.5V15.75C17.5 16.7165 16.7165 17.5 15.75 17.5H11.5V11.5ZM8.25092 21.9999C6.89894 21.9999 5.73978 21.1744 5.25 19.9999H7.02617C7.3418 20.3092 7.77409 20.4999 8.25092 20.4999H16.5009C18.7101 20.4999 20.5009 18.7091 20.5009 16.4999V8.24994C20.5009 7.77311 20.3102 7.34083 20.0009 7.02519V5.24994C21.1754 5.73972 22.0009 6.89796 22.0009 8.24994V16.4999C22.0009 19.5375 19.5385 21.9999 16.5009 21.9999H8.25092Z" fill="#212121"/>
</svg>

<svg xmlns="http://www.w3.org/2000/svg" width="24" height="24"><path d="M5.25 2A3.25 3.25 0 0 0 2 5.25v10.5A3.25 3.25 0 0 0 5.25 19h10.5A3.25 3.25 0 0 0 19 15.75V5.25A3.25 3.25 0 0 0 15.75 2H5.25ZM3.5 5.25c0-.966.784-1.75 1.75-1.75H10V10H3.5V5.25Zm8 4.75V3.5h4.25c.966 0 1.75.784 1.75 1.75V10h-6Zm-8 1.5H10v6H5.25a1.75 1.75 0 0 1-1.75-1.75V11.5Zm8 0h6v4.25a1.75 1.75 0 0 1-1.75 1.75H11.5v-6ZM8.25 22a3.25 3.25 0 0 1-3-2h1.776c.316.31.748.5 1.225.5h8.25a4 4 0 0 0 4-4V8.25c0-.477-.19-.91-.5-1.225V5.25a3.25 3.25 0 0 1 2 3v8.25a5.5 5.5 0 0 1-5.5 5.5H8.25Z"/></svg>
